X: 1
T:Real Old Mountain Dew
C:Traditional
O:Irish
D:"Irish Songs of Drinking & Rebellion", The Clancy Brothers
B:"The Dubliners Songbook", Campbell et al.
R:Song
M:4/4
K:G
dd|"G"e>f e>d B2 A>G|"C"A>B A>G E2 D>E|"G"G2 B>G A>B A>G|"D"d6 d2|
w:Let the gras_ ses_ grow and the wa_ ters_ flow in a free and_ ea_ sy_ way,
e "G"e>f e>d B2 A>G|"C"A>B A>G E2 (3DEF|"G"G2 B2 "D"A>G A2|"G"G4 z2 d2||
w:give_ me e-nough of the rare_ old_ stuff that's__ made near Gal_ way Bay,
FA "G"e2 d2 B2 d2|e2 d2 G2 d2|e2 dd B2 G2|"Em"E4 z2 dd|
w:ee-lers all, from Do-ne-gal, Sli-go and_ Leit-rim, too, And we'll
"G"e2 d>d B2 G>G|"C"A2 G2 E2 D>D|"G"G2 B2 "D"A>G A2|"G"G6||
w:give them a slip and we'll take a sip of the real old moun_ tain dew.

%---------------------------------------------------------------------

